icons/default/Podcast.svg

<g clip-path="url(#clip0)">
	<path d="M6.375 23.625H17.625" stroke="black" stroke-miterlimit="10" />
	<path d="M12 23.25V15.75" stroke="black" stroke-miterlimit="10" />
	<path d="M18 9.75C18 12.75 15 15.75 12 15.75C9 15.75 6 12.75 6 9.75" stroke="black" stroke-miterlimit="10" />
	<path
		d="M15 10.125C15 11.7818 13.6568 13.125 12 13.125C10.3432 13.125 9 11.7818 9 10.125V3.375C9 1.71825 10.3432 0.375 12 0.375C13.6568 0.375 15 1.71825 15 3.375V10.125Z"
		stroke="black" stroke-miterlimit="10" />
	<path d="M10.875 4.875H9" stroke="black" stroke-miterlimit="10" />
	<path d="M10.875 8.625H9" stroke="black" stroke-miterlimit="10" />
	<path d="M15 4.875H13.125" stroke="black" stroke-miterlimit="10" />
	<path d="M15 8.625H13.125" stroke="black" stroke-miterlimit="10" />
</g>
<defs>
	<clipPath id="clip0">
		<rect width="24" height="24" fill="white" />
	</clipPath>
</defs>

<g clip-path="url(#a)" stroke="#000" stroke-miterlimit="10"><path d="M6.375 23.625h11.25M12 23.25v-7.5M18 9.75c0 3-3 6-6 6s-6-3-6-6"/><path d="M15 10.125a3 3 0 0 1-6 0v-6.75a3 3 0 0 1 6 0v6.75ZM10.875 4.875H9M10.875 8.625H9M15 4.875h-1.875M15 8.625h-1.875"/></g><defs><clipPath id="a"><path fill="#fff" d="M0 0h24v24H0z"/></clipPath></defs>
